X: 698
T: Zhangsheng xi yuanyang
L: 1/16
M: 2/4
K: Eb
B2 B c e2 G2 [I:setbarnb 1]| 
B2 B c G2 F2 | 
B2 B c e2 G2 | 
B2 B c G2 F2 | 
B GB4e e | 
c2 B2 G2 F2 | 
B2 F2 B2 G F | 
E2> C2 E2 F2 | 
G F E C2< F2 G | 
B2> G2 B2 e G | 
F2 G2 F G F E | 
F EC4E2 | 
F2 F G E2 C2 | 
B,8 |]

@@@ Tune index: 9572
